X:1
T:Culloden's Fancy
T:Culloden's Fancy
T:Caledonian Country Dances c.1754
C:Caledonian Country Dances c.1754
L:1/8
M:2/4
K:G
V:1 treble 
V:1
 B/c/ |"G" [DGd]2"D7" [DFc]2 |"G" [DGB]G GA/B/ |"Am" cA Af/g/ |"D7" aA AB/c/ | %5
"G" [DGd]2"D7" [DFc]2 |"G" [DGB]G Gg |"D" f"Em"g"D7"dc |"G" B"C"G"G" G || e/f/ |"G" gd dB | gd dB | %12
 gd dB |"D7" cA Ac |"G" Bd de |"C" ef"D" f"A7"g |"D" af"A7" g"D7"c |"G" B"C"G"G" G |] %18

